X:1
T:Title
%%score { 1 | 2 }
L:1/8
Q:1/4=100
M:4/4
K:Ab
V:1 treble nm="Grand Piano"
V:2 bass 
V:1
 [Ec]3 [Ec] [Ec]2 [=EB]2 | [FA]2 [DF]2 [CE]4 | [CA]3 [EA] [DG]2 [CA]2 | [EB]6 z2 | %4
w: George~C.~Stebbins * * *||||
 [Ec]3 [Ec] [Ec]2 [=EB]2 | [FA]2 F2 E4 | A3 A c2 B2 | [CA]6 z2 | B3 B B2 E2 | [EA]2 [EB]2 [Ec]4 | %10
w: ||||||
 c3 c c2 [EA]2 | B2 c2 d4 | c3 d e2 c2 | [FB]2 [EF]2 [DB]4 | A3 A c2 B2 | [CA]6 z2 |] %16
w: ||||||
V:2
 [A,,A,]3 [A,,A,] [A,,A,]2 [C,G,]2 | [D,F,]2 [D,A,]2 [A,,A,]4 | [A,,E,]3 [C,E,] [B,,E,]2 [A,,A,]2 | %3
 [E,G,]6 z2 | [A,,A,]3 [A,,A,] [A,,A,]2 [C,G,]2 | [D,F,]2 [F,A,D]2 [A,C]4 | %6
 [F,C]3 [F,B,=D] [E,A,E]2 [E,G,_D]2 | [A,,A,]6 z2 | [E,G,E]3 [E,G,E] [E,G,E]2 [D,B,]2 | %9
 [C,A,]2 [B,,G,]2 [A,,A,]4 | [A,E]3 [A,E] [A,E]2 [C,A,]2 | [E,G,E]2 [E,A,E]2 [E,B,E]4 | %12
 [A,E]3 [A,E] [A,CE]2 [A,_G]2 | [D,B,]2 [C,=A,]2 [B,,B,]4 | [E,CE]3 [F,B,=D] [E,A,E]2 [E,G,_D]2 | %15
 [A,,A,]6 z2 |] %16

